X: 18209
T: Humours Of Glynn, The
R: jig
M: 6/8
K: Aminor
AcB AEE|EcB cEE|AcB AGE|DEG A2G|
AcB AEG|ced cGE|FAF EGE|DEG A3|
Gcc cGc|ceg gec|fed ecA|GEG A3|
Gcc cGc|ceg gec|f2d ecA|GEG AcA|
GEE cEE|GEc GEG|GEE cGE|DEG A3|
GEE cEE|GEc GEG|f2d ecA|GEG A2G|
Aaa gec|fed ecA|Aaa gec|fed e2A|
Aaa gec|fed ecA|f2d ecA|GEG A2G|

